svgs/sharp-thin/microchip-ai.svg

<svg xmlns="http://www.w3.org/2000/svg" viewBox="0 0 512 512"><!--! Font Awesome Pro 6.5.2 by @fontawesome - https://fontawesome.com License - https://fontawesome.com/license (Commercial License) Copyright 2024 Fonticons, Inc. --><path d="M168 0V8 64h80V8 0h16V8 64h80V8 0h16V8 64h72 16V80v72h56 8v16h-8H448v80h56 8v16h-8H448v80h56 8v16h-8H448v72 16H432 360v56 8H344v-8V448H264v56 8H248v-8V448H168v56 8H152v-8V448H80 64V432 360H8 0V344H8 64V264H8 0V248H8 64V168H8 0V152H8 64V80 64H80h72V8 0h16zm0 80H152 80v72 16 80 16 80 16 72h72 16 80 16 80 16 72V360 344 264 248 168 152 80H360 344 264 248 168zm160 96h16v8V328v8H328v-8V184v-8zM131.7 336l69-155.2 2.1-4.8h10.4l2.1 4.8 69 155.2H266.8l-14.2-32H248 168h-4.6l-14.2 32H131.7zm113.8-48L208 203.7 170.5 288h74.9z"/></svg>

<svg xmlns="http://www.w3.org/2000/svg" viewBox="0 0 512 512"><!--! Font Awesome Pro 6.6.0 by @fontawesome - https://fontawesome.com License - https://fontawesome.com/license (Commercial License) Copyright 2024 Fonticons, Inc. --><path d="M168 0l0 8 0 56 80 0 0-56 0-8 16 0 0 8 0 56 80 0 0-56 0-8 16 0 0 8 0 56 72 0 16 0 0 16 0 72 56 0 8 0 0 16-8 0-56 0 0 80 56 0 8 0 0 16-8 0-56 0 0 80 56 0 8 0 0 16-8 0-56 0 0 72 0 16-16 0-72 0 0 56 0 8-16 0 0-8 0-56-80 0 0 56 0 8-16 0 0-8 0-56-80 0 0 56 0 8-16 0 0-8 0-56-72 0-16 0 0-16 0-72L8 360l-8 0 0-16 8 0 56 0 0-80L8 264l-8 0 0-16 8 0 56 0 0-80L8 168l-8 0 0-16 8 0 56 0 0-72 0-16 16 0 72 0 0-56 0-8 16 0zm0 80l-16 0L80 80l0 72 0 16 0 80 0 16 0 80 0 16 0 72 72 0 16 0 80 0 16 0 80 0 16 0 72 0 0-72 0-16 0-80 0-16 0-80 0-16 0-72-72 0-16 0-80 0-16 0-80 0zm160 96l16 0 0 8 0 144 0 8-16 0 0-8 0-144 0-8zM131.7 336l69-155.2 2.1-4.8 10.4 0 2.1 4.8 69 155.2-17.5 0-14.2-32-4.6 0-80 0-4.6 0-14.2 32-17.5 0zm113.8-48L208 203.7 170.5 288l74.9 0z"/></svg>
